svg_80x80/tornado.svg

<svg viewBox="0 0 80 80" xmlns="http://www.w3.org/2000/svg">
<rect width="100%" height="100%" fill="white"/>
<path d="M47.2008 74.999C46.9363 74.9989 46.6752 74.9405 46.4358 74.828C46.0104 74.6377 45.6728 74.2934 45.4909 73.8644C45.3089 73.4354 45.2961 72.9533 45.4549 72.5152C45.5179 72.0023 44.9239 70.2654 41.3332 67.9616C40.9779 67.6751 40.7401 67.2681 40.665 66.8179C40.5899 66.3676 40.6828 65.9055 40.9259 65.5192C41.169 65.1329 41.5455 64.8493 41.9839 64.7222C42.4223 64.5951 42.892 64.6334 43.3041 64.8298C46.1929 66.6837 48.0377 68.6275 48.7757 70.5894C49.2393 71.6423 49.2684 72.8358 48.8566 73.9101C48.7128 74.2304 48.4807 74.5029 48.1873 74.6958C47.894 74.8887 47.5518 74.9939 47.2008 74.999Z" fill="url(#paint0_linear_66_3900)"/>
<path d="M47.1998 74.999C46.7743 74.9745 46.3702 74.8048 46.0547 74.5182C45.7393 74.2317 45.5316 73.8457 45.4663 73.4246C45.401 73.0035 45.4821 72.5727 45.696 72.2042C45.91 71.8356 46.2438 71.5515 46.6418 71.3993C48.6989 70.8098 50.5641 69.6883 52.0494 68.1477C53.5346 66.6072 54.5873 64.7022 55.1012 62.625C55.1419 62.3845 55.2297 62.1544 55.3594 61.9478C55.4891 61.7412 55.6582 61.5622 55.8571 61.4209C56.056 61.2797 56.2807 61.179 56.5185 61.1247C56.7563 61.0703 57.0025 61.0633 57.243 61.1041C57.4835 61.1449 57.7136 61.2326 57.9202 61.3623C58.1268 61.492 58.3058 61.6611 58.447 61.86C58.5883 62.0589 58.6889 62.2837 58.7433 62.5215C58.7977 62.7593 58.8047 63.0054 58.7639 63.2459C58.145 65.9917 56.8019 68.5217 54.8743 70.5728C52.9467 72.6238 50.5049 74.1211 47.8027 74.909C47.6089 74.9755 47.4046 75.006 47.1998 74.999Z" fill="url(#paint1_linear_66_3900)"/>
<path d="M42.6461 68.2585C41.2361 68.2752 39.8393 67.9867 38.5514 67.4126C37.5621 66.9675 36.6747 66.3241 35.9441 65.5223C35.2135 64.7205 34.6552 63.7772 34.3037 62.751L37.9034 61.716C38.105 62.2441 38.4103 62.7264 38.8013 63.1344C39.1924 63.5425 39.6613 63.8681 40.1803 64.0919C42.2051 64.9918 45.2199 64.5958 48.9006 62.9399C49.3441 62.7744 49.834 62.784 50.2707 62.9666C50.7074 63.1492 51.0582 63.4913 51.2518 63.9232C51.4455 64.3552 51.4674 64.8446 51.3132 65.2922C51.1589 65.7397 50.8401 66.1117 50.4215 66.3327C47.9937 67.5135 45.3444 68.1697 42.6461 68.2585Z" fill="url(#paint2_linear_66_3900)"/>
<path d="M56.9371 64.7578C56.5125 64.7632 56.099 64.6227 55.7656 64.3599C55.4322 64.097 55.1991 63.7276 55.1054 63.3136C55.0116 62.8995 55.0628 62.4658 55.2504 62.0849C55.438 61.704 55.7507 61.3991 56.1361 61.2211C58.6379 60.0332 58.4489 58.2333 58.3769 57.8373C58.2736 57.4977 58.2797 57.1342 58.3944 56.7983C58.5091 56.4624 58.7265 56.171 59.0159 55.9655C59.2859 55.7315 62.8316 52.4467 60.8158 44.6533C60.7158 44.1848 60.8002 43.6958 61.0514 43.2879C61.3026 42.88 61.7013 42.5845 62.1646 42.4629C62.628 42.3413 63.1204 42.4028 63.5396 42.6348C63.9587 42.8667 64.2724 43.2512 64.4155 43.7084C66.5393 51.8078 63.6415 56.3794 62.1567 58.1073C62.1464 59.5077 61.7164 60.8727 60.9223 62.0262C60.1282 63.1796 59.0065 64.0685 57.702 64.5778C57.4634 64.6934 57.2022 64.7549 56.9371 64.7578Z" fill="url(#paint3_linear_66_3900)"/>
<path d="M36.6972 64.1099C35.0579 64.1331 33.4352 63.779 31.9546 63.0749C30.803 62.5008 29.7766 61.7042 28.9348 60.7311C28.0929 59.7579 27.4523 58.6276 27.0499 57.4054C26.9151 56.928 26.9754 56.4166 27.2176 55.9837C27.4598 55.5509 27.864 55.2319 28.3413 55.097C28.8187 54.9622 29.3301 55.0225 29.763 55.2647C30.1959 55.5069 30.5148 55.9111 30.6497 56.3884C31.1672 57.8636 32.2479 59.0738 33.6554 59.7542C35.8783 60.8161 38.92 60.5551 42.6998 58.9892C42.9297 58.8538 43.1861 58.7694 43.4515 58.7417C43.7169 58.714 43.9852 58.7436 44.2382 58.8286C44.4912 58.9136 44.7229 59.0519 44.9178 59.2342C45.1126 59.4166 45.2661 59.6386 45.3676 59.8854C45.4692 60.1322 45.5166 60.3979 45.5065 60.6646C45.4965 60.9313 45.4293 61.1927 45.3094 61.4311C45.1896 61.6696 45.0199 61.8795 44.8118 62.0466C44.6038 62.2138 44.3623 62.3343 44.1036 62.4C41.7707 63.4496 39.2542 64.0305 36.6972 64.1099Z" fill="url(#paint4_linear_66_3900)"/>
<path d="M29.6242 58.8003C28.5658 58.8135 27.5084 58.7291 26.4655 58.5483C25.6645 58.4223 17.3042 56.8564 13.2815 48.811C9.25879 40.7656 11.7426 31.5233 11.9226 30.9024C15.4053 17.2324 30.5602 9.19603 31.7571 8.58408C37.6007 5.19227 44.1835 3.27706 50.9346 3.0045C51.1895 2.98675 51.4454 3.02164 51.6862 3.10699C51.9271 3.19234 52.1478 3.32633 52.3347 3.50064C52.5215 3.67494 52.6705 3.88582 52.7724 4.12017C52.8743 4.35452 52.9269 4.60732 52.9269 4.86286C52.9269 5.11839 52.8743 5.3712 52.7724 5.60555C52.6705 5.8399 52.5215 6.05078 52.3347 6.22508C52.1478 6.39938 51.9271 6.53338 51.6862 6.61873C51.4454 6.70408 51.1895 6.73897 50.9346 6.72122C44.8325 7.023 38.889 8.7687 33.5929 11.8148L33.4939 11.8688C33.35 11.9498 18.6631 19.5452 15.4953 31.8293C15.4953 31.9103 13.2185 40.3067 16.6022 47.0742C19.905 53.6887 27.0054 54.8316 27.1044 54.8496H27.2124C28.5166 55.049 29.8399 55.0913 31.1541 54.9756C34.5164 54.704 37.7948 53.7873 40.8104 52.2758C41.0325 52.1294 41.2835 52.0323 41.5463 51.9911C41.8091 51.9498 42.0777 51.9653 42.334 52.0365C42.5903 52.1077 42.8284 52.233 43.0322 52.4039C43.2361 52.5749 43.4009 52.7875 43.5157 53.0275C43.6305 53.2674 43.6926 53.5292 43.6978 53.7952C43.7029 54.0612 43.6511 54.3252 43.5457 54.5694C43.4403 54.8137 43.2838 55.0325 43.0867 55.2112C42.8897 55.39 42.6566 55.5244 42.4033 55.6055C38.4449 57.6361 34.0725 58.7292 29.6242 58.8003Z" fill="url(#paint5_linear_66_3900)"/>
<path d="M20.6516 36.212H20.5526C20.3665 36.1991 20.1849 36.1496 20.0181 36.0662C19.8512 35.9828 19.7026 35.8671 19.5807 35.726C19.4578 35.5867 19.3642 35.424 19.3055 35.2478C19.2467 35.0715 19.224 34.8853 19.2387 34.7001C19.8417 25.9348 25.5382 20.6252 28.022 18.7443C39.1542 10.2039 48.4505 8.97104 51.4023 8.80905H52.1312C52.3179 8.80905 52.5028 8.84583 52.6753 8.91729C52.8478 8.98874 53.0046 9.09348 53.1366 9.22551C53.2687 9.35755 53.3734 9.5143 53.4449 9.68681C53.5163 9.85932 53.5531 10.0442 53.5531 10.2309C53.5531 10.4177 53.5163 10.6026 53.4449 10.7751C53.3734 10.9476 53.2687 11.1043 53.1366 11.2364C53.0046 11.3684 52.8478 11.4731 52.6753 11.5446C52.5028 11.6161 52.3179 11.6528 52.1312 11.6528C51.0873 11.6438 41.503 11.9498 29.8039 21.0031C27.6711 22.65 22.6044 27.3026 22.1185 34.8981C22.0887 35.2632 21.9199 35.6031 21.647 35.8475C21.3741 36.092 21.0178 36.2224 20.6516 36.212Z" fill="url(#paint6_linear_66_3900)"/>
<path d="M58.0165 40.6576C57.7863 40.6594 57.5592 40.6045 57.3552 40.4978C57.1511 40.3911 56.9765 40.2358 56.8466 40.0457C56.6348 39.7337 56.5547 39.3506 56.6238 38.9799C56.6929 38.6091 56.9056 38.2806 57.2156 38.0658C58.3495 37.2739 61.4093 34.5921 61.8773 31.6673C62.4352 28.1216 60.3474 24.2249 59.5284 23.5679L59.4564 23.5139C59.1647 23.3718 58.9303 23.1342 58.7923 22.8405C58.6542 22.5468 58.6208 22.2148 58.6975 21.8994C58.7742 21.5841 58.9565 21.3045 59.2141 21.1071C59.4716 20.9097 59.789 20.8063 60.1134 20.8141C60.3179 20.815 60.5201 20.8579 60.7073 20.9401C62.2552 21.6511 63.4071 24.3869 63.7491 25.2058C64.6568 27.3986 64.9823 29.7887 64.694 32.1443C63.9381 36.8959 59.0425 40.2977 58.8355 40.4417C58.5901 40.5936 58.3049 40.6688 58.0165 40.6576Z" fill="url(#paint7_linear_66_3900)"/>
<path d="M30.8118 37.5169C30.3929 36.3437 30.2293 35.0946 30.3317 33.8531C30.4341 32.6115 30.8003 31.4062 31.4057 30.3174C33.4936 26.6547 37.6512 23.4599 43.7618 20.8231C51.8612 17.3134 57.7827 18.8523 61.3014 20.7692C63.6011 22.0048 65.5798 23.7615 67.079 25.8988C67.556 26.5827 71.2997 32.5403 66.521 41.3416C61.7424 50.1429 51.5642 55.5425 51.1412 55.7405C50.9248 55.8556 50.6877 55.9265 50.4436 55.949C50.1995 55.9714 49.9534 55.945 49.7197 55.8713C49.4859 55.7975 49.2692 55.678 49.0822 55.5195C48.8951 55.3611 48.7416 55.167 48.6304 54.9486C48.4059 54.509 48.3641 53.9985 48.5141 53.5283C48.6641 53.0581 48.9938 52.6661 49.4313 52.4378C49.5663 52.3748 58.9796 47.4161 63.2543 39.5507C67.061 32.5313 64.1542 28.1756 64.0192 27.9956L63.9562 27.9056C63.7223 27.5366 57.9087 18.7443 45.2377 24.2159C46.2708 24.7867 47.1507 25.5987 47.8025 26.5827C49.2154 28.7695 50.0793 34.0611 43.4108 38.9568C41.206 40.5767 38.0112 42.3045 34.4655 42.3045C33.6322 42.305 32.8016 42.2083 31.9907 42.0165C30.3003 41.6393 28.7447 40.8086 27.491 39.6137C25.2682 37.2739 24.2693 34.7991 24.5122 32.2253C24.9532 27.5456 29.4259 23.7659 33.2776 20.9941C39.4061 16.5755 48.7114 13.7947 49.1074 13.6327C49.3437 13.5624 49.5916 13.5393 49.8369 13.5648C50.0822 13.5903 50.32 13.6638 50.5369 13.7812C50.7538 13.8986 50.9454 14.0576 51.1008 14.2491C51.2562 14.4405 51.3724 14.6607 51.4427 14.8971C51.513 15.1335 51.5361 15.3814 51.5106 15.6266C51.4851 15.8719 51.4116 16.1098 51.2941 16.3266C51.1767 16.5435 51.0178 16.7351 50.8263 16.8905C50.6348 17.0459 50.4146 17.1621 50.1783 17.2324C50.0883 17.2324 41.071 19.9952 35.4554 24.0449C32.4946 26.1777 28.5169 29.3905 28.256 32.6123C28.121 34.0791 28.2559 36.59 30.8388 37.5529L35.3384 38.6868" fill="url(#paint8_linear_66_3900)"/>
<linearGradient id="paint0_linear_66_3900" x1="40.4783" y1="69.7704" x2="49.1716" y2="69.7704" gradientUnits="userSpaceOnUse">
<stop stop-color="#AEDFE4"/>
<stop offset="1" stop-color="#5E9DD0"/>
</linearGradient>
<linearGradient id="paint1_linear_66_3900" x1="45.3369" y1="68.0156" x2="58.7909" y2="68.0156" gradientUnits="userSpaceOnUse">
<stop stop-color="#AEDFE4"/>
<stop offset="1" stop-color="#5E9DD0"/>
</linearGradient>
<linearGradient id="paint2_linear_66_3900" x1="34.3307" y1="64.9738" x2="51.5194" y2="64.9738" gradientUnits="userSpaceOnUse">
<stop stop-color="#AEDFE4"/>
<stop offset="1" stop-color="#5E9DD0"/>
</linearGradient>
<linearGradient id="paint3_linear_66_3900" x1="55.0742" y1="53.5447" x2="65.1354" y2="53.5447" gradientUnits="userSpaceOnUse">
<stop stop-color="#AEDFE4"/>
<stop offset="1" stop-color="#5E9DD0"/>
</linearGradient>
<linearGradient id="paint4_linear_66_3900" x1="26.9869" y1="59.5742" x2="45.2556" y2="59.5742" gradientUnits="userSpaceOnUse">
<stop stop-color="#AEDFE4"/>
<stop offset="1" stop-color="#5E9DD0"/>
</linearGradient>
<linearGradient id="paint5_linear_66_3900" x1="11.0227" y1="30.8844" x2="52.7975" y2="30.8844" gradientUnits="userSpaceOnUse">
<stop stop-color="#AEDFE4"/>
<stop offset="1" stop-color="#5E9DD0"/>
</linearGradient>
<linearGradient id="paint6_linear_66_3900" x1="19.2297" y1="22.497" x2="53.5891" y2="22.497" gradientUnits="userSpaceOnUse">
<stop stop-color="#AEDFE4"/>
<stop offset="1" stop-color="#5E9DD0"/>
</linearGradient>
<linearGradient id="paint7_linear_66_3900" x1="56.5947" y1="30.7224" x2="64.811" y2="30.7224" gradientUnits="userSpaceOnUse">
<stop stop-color="#AEDFE4"/>
<stop offset="1" stop-color="#5E9DD0"/>
</linearGradient>
<linearGradient id="paint8_linear_66_3900" x1="24.4942" y1="34.7451" x2="68.9239" y2="34.7451" gradientUnits="userSpaceOnUse">
<stop stop-color="#AEDFE4"/>
<stop offset="1" stop-color="#5E9DD0"/>
</linearGradient>
</svg>

<svg xmlns="http://www.w3.org/2000/svg" viewBox="0 0 80 80">
  <rect width="100%" height="100%" fill="#fff"/>
  <path fill="url(#a)" d="M47.2 75a1.8 1.8 0 0 1-.76-.17 1.84 1.84 0 0 1-.99-2.31c.07-.52-.53-2.25-4.12-4.56a1.86 1.86 0 0 1 1.97-3.13c2.9 1.85 4.74 3.8 5.48 5.76.46 1.05.49 2.25.08 3.32A1.84 1.84 0 0 1 47.2 75Z"/>
  <path fill="url(#b)" d="M47.2 75a1.86 1.86 0 0 1-.56-3.6 12.17 12.17 0 0 0 8.46-8.78 1.86 1.86 0 1 1 3.66.63A15.76 15.76 0 0 1 47.8 74.9c-.2.07-.4.1-.6.09Z"/>
  <path fill="url(#c)" d="M42.65 68.26a9.77 9.77 0 0 1-4.1-.85 7.93 7.93 0 0 1-4.25-4.66l3.6-1.03a4.23 4.23 0 0 0 2.28 2.37c2.03.9 5.04.5 8.72-1.15a1.86 1.86 0 0 1 1.52 3.4 19.22 19.22 0 0 1-7.77 1.92Z"/>
  <path fill="url(#d)" d="M56.94 64.76a1.85 1.85 0 0 1-.8-3.54c2.5-1.19 2.3-2.99 2.24-3.38a1.7 1.7 0 0 1 .64-1.87c.27-.24 3.81-3.52 1.8-11.32a1.86 1.86 0 0 1 3.6-.94c2.12 8.1-.78 12.67-2.26 14.4a7 7 0 0 1-4.46 6.47c-.24.11-.5.17-.76.18Z"/>
  <path fill="url(#e)" d="M36.7 64.11a9.74 9.74 0 0 1-9.65-6.7 1.87 1.87 0 0 1 3.6-1.02 5.91 5.91 0 0 0 3 3.36c2.23 1.07 5.27.8 9.05-.76a1.86 1.86 0 1 1 1.4 3.41 19.53 19.53 0 0 1-7.4 1.71Z"/>
  <path fill="url(#f)" d="M29.62 58.8c-1.05.01-2.11-.07-3.15-.25-.8-.13-9.17-1.7-13.19-9.74-4.02-8.04-1.54-17.29-1.36-17.9C15.41 17.22 30.56 9.2 31.76 8.57A41.54 41.54 0 0 1 50.93 3a1.86 1.86 0 1 1 0 3.72 38.6 38.6 0 0 0-17.34 5.1l-.1.05c-.14.08-14.83 7.68-18 19.96 0 .08-2.27 8.48 1.11 15.24 3.3 6.62 10.4 7.76 10.5 7.78h.11c1.3.2 2.63.24 3.94.13a26.27 26.27 0 0 0 9.66-2.7 1.86 1.86 0 1 1 1.6 3.33 29.01 29.01 0 0 1-12.79 3.19Z"/>
  <path fill="url(#g)" d="M20.65 36.21h-.1a1.41 1.41 0 0 1-1.31-1.51c.6-8.77 6.3-14.07 8.78-15.96C39.15 10.2 48.45 8.97 51.4 8.81h.73a1.42 1.42 0 0 1 0 2.84c-1.04 0-10.63.3-22.33 9.35-2.13 1.65-7.2 6.3-7.68 13.9a1.43 1.43 0 0 1-1.47 1.31Z"/>
  <path fill="url(#h)" d="M58.02 40.66a1.4 1.4 0 0 1-1.4-1.68c.07-.37.29-.7.6-.91 1.13-.8 4.19-3.48 4.66-6.4.56-3.55-1.53-7.45-2.35-8.1l-.07-.06a1.42 1.42 0 0 1 .65-2.7c.2 0 .41.05.6.13 1.55.71 2.7 3.45 3.04 4.27.9 2.19 1.23 4.58.94 6.93-.75 4.76-5.65 8.16-5.85 8.3-.25.15-.54.23-.82.22Z"/>
  <path fill="url(#i)" d="M30.81 37.52a8.76 8.76 0 0 1 .6-7.2c2.08-3.67 6.24-6.86 12.35-9.5 8.1-3.5 14.02-1.97 17.54-.05 2.3 1.23 4.28 3 5.78 5.13.48.68 4.22 6.64-.56 15.44-4.78 8.8-14.96 14.2-15.38 14.4a1.85 1.85 0 0 1-2.63-2.21c.15-.47.48-.86.92-1.1.14-.06 9.55-5.01 13.82-12.88 3.81-7.02.9-11.37.77-11.55l-.06-.1c-.24-.36-6.05-9.16-18.72-3.68a7.33 7.33 0 0 1 2.56 2.36c1.42 2.19 2.28 7.48-4.39 12.38-2.2 1.62-5.4 3.34-8.94 3.34-.84 0-1.67-.1-2.48-.28a9.53 9.53 0 0 1-4.5-2.4c-2.22-2.35-3.22-4.82-2.98-7.4.44-4.67 4.92-8.45 8.77-11.23 6.13-4.41 15.43-7.2 15.83-7.36a1.88 1.88 0 1 1 1.07 3.6c-.1 0-9.1 2.77-14.72 6.81-2.97 2.14-6.94 5.35-7.2 8.57-.14 1.47 0 3.98 2.58 4.94l4.5 1.14"/>
  <linearGradient id="a" x1="40.48" x2="49.17" y1="69.77" y2="69.77" gradientUnits="userSpaceOnUse">
    <stop stop-color="#AEDFE4"/>
    <stop offset="1" stop-color="#5E9DD0"/>
  </linearGradient>
  <linearGradient id="b" x1="45.34" x2="58.79" y1="68.02" y2="68.02" gradientUnits="userSpaceOnUse">
    <stop stop-color="#AEDFE4"/>
    <stop offset="1" stop-color="#5E9DD0"/>
  </linearGradient>
  <linearGradient id="c" x1="34.33" x2="51.52" y1="64.97" y2="64.97" gradientUnits="userSpaceOnUse">
    <stop stop-color="#AEDFE4"/>
    <stop offset="1" stop-color="#5E9DD0"/>
  </linearGradient>
  <linearGradient id="d" x1="55.07" x2="65.14" y1="53.54" y2="53.54" gradientUnits="userSpaceOnUse">
    <stop stop-color="#AEDFE4"/>
    <stop offset="1" stop-color="#5E9DD0"/>
  </linearGradient>
  <linearGradient id="e" x1="26.99" x2="45.26" y1="59.57" y2="59.57" gradientUnits="userSpaceOnUse">
    <stop stop-color="#AEDFE4"/>
    <stop offset="1" stop-color="#5E9DD0"/>
  </linearGradient>
  <linearGradient id="f" x1="11.02" x2="52.8" y1="30.88" y2="30.88" gradientUnits="userSpaceOnUse">
    <stop stop-color="#AEDFE4"/>
    <stop offset="1" stop-color="#5E9DD0"/>
  </linearGradient>
  <linearGradient id="g" x1="19.23" x2="53.59" y1="22.5" y2="22.5" gradientUnits="userSpaceOnUse">
    <stop stop-color="#AEDFE4"/>
    <stop offset="1" stop-color="#5E9DD0"/>
  </linearGradient>
  <linearGradient id="h" x1="56.59" x2="64.81" y1="30.72" y2="30.72" gradientUnits="userSpaceOnUse">
    <stop stop-color="#AEDFE4"/>
    <stop offset="1" stop-color="#5E9DD0"/>
  </linearGradient>
  <linearGradient id="i" x1="24.49" x2="68.92" y1="34.75" y2="34.75" gradientUnits="userSpaceOnUse">
    <stop stop-color="#AEDFE4"/>
    <stop offset="1" stop-color="#5E9DD0"/>
  </linearGradient>
</svg>
